X:158
T:Mother & Daughter - Woodrich
%%VWML:SBG-1-2-122-0
F:http://www.vwml.org/record/SBG/1/2/122
Z:Original Sibelius transcriptions by M. & S. Graebe
M:4/4
I:linebreak $
K:C
V:1 treble nm="P1"
V:1
 c2 c2 | c2 de fedc | B2 G2 f2 d2 | g3 e cdec | d4 GABc | d2 g2 c2 B2 |$ A f3 G2 G2 | G2 e2 dc AB | %8
 G6 | c2 cc c2 de | fedc B2 G2 | f3 d g2 ge |$ cdec d4 | GA Bc d g2 e | c3 B A2 f2 | G3 G G2 e2 | %16
 dc A2 !fermata!G4 | %17
T:Mother & Daughter - from Fowey
F:http://www.vwml.org/record/SBG/1/2/122
Z:Original Sibelius transcriptions by M. & S. Graebe
M:4/4
I:linebreak $
K:F
V:1 treble nm="P1"
V:1
 F2 FF F2 GA | B3 AGF E2 C2 | B3 G c3 A | FGAF G4 | CDDE G2 c2 |$ A2 F2 D2 B2 | C3 C C2 A2 | %7
 GFDE C2 | F2 F2 F2 GA | BAGF E2 C2 | B2 G2 c2 F2 |$ FGAE G4 | CDEF G2 c2 | A2 F2 D2 B2 | %14
 C3 C C2 A2 | GFDE C4 | %16

